X: 1418
T: Ernie Wells Swing Waltz
B: australian traditional tunes wiki
M:3/4
L:1/8
R: Waltz
Q: 1/4=100
K:D
V:1 
f2|"D"d2d3f|d2d3f|a4g2|"A7"e4 ec|A2c3e|A2c2e2|"G"b2a2g2|"D"f4 fd|
Azd3f|Azd2f2|a4g2|"G"B4 ef|"Em"g2e2 cB|"A7"A2f2e2|"D"d6|"FINE"d4||
dc|"G"B4d2|g4 gg|"D"f4d2|A4 ff|"A7"e3fe2|e2d2e2|"D"f4d2|A4A2|
"G"B4d2|g4 ag|"D"f4d2|A4 df|"A7"e3fe2|dc4B|A2c2e2|a2g2"d.c. al Fine"e2||
% abcbook-tune_id 6342d53af0dd23e9ea6273e2


% abcbook-boost 0
% abcbook-tablature 
% abcbook-transpose 
% abcbook-lastupdated 1665324364179
% abcbook-soundfonts 
% abcbook-repeats 1
% NFF Book 2006

